formas-de-pagamento/itau-v2.svg

<svg enable-background="new 0 0 60 40" height="40" viewBox="0 0 60 40" width="60" xmlns="http://www.w3.org/2000/svg"><switch><foreignObject height="1" requiredExtensions="http://ns.adobe.com/AdobeIllustrator/10.0/" width="1"/><g><path d="m60 35c0 2.75-2.25 5-5 5h-50c-2.75 0-5-2.25-5-5v-30c0-2.75 2.25-5 5-5h50c2.75 0 5 2.25 5 5z" fill="#f5f5f5"/><path d="m55 0h-50c-2.75 0-5 2.25-5 5v30c0 2.75 2.25 5 5 5h50c2.75 0 5-2.25 5-5v-30c0-2.75-2.25-5-5-5zm0 1c2.206 0 4 1.794 4 4v30c0 2.206-1.794 4-4 4h-50c-2.206 0-4-1.794-4-4v-30c0-2.206 1.794-4 4-4z" fill="#fff"/><path d="m21.924 7.893h16.152c1.125 0 2.062.402 2.84 1.179.804.777 1.205 1.741 1.205 2.866v16.152c0 1.098-.402 2.063-1.205 2.839-.777.777-1.715 1.179-2.84 1.179h-16.152c-1.125 0-2.089-.402-2.866-1.179s-1.179-1.741-1.179-2.839v-16.153c0-1.125.402-2.089 1.179-2.866s1.741-1.178 2.866-1.178z" fill="#124c89"/><path d="m19.888 19.999v8.089h1.902v-8.089zm9.108 6.241c0-.723.723-1.045 2.143-1.018v.643l-.027.348c-.08.241-.241.429-.456.562-.214.187-.482.268-.777.268-.589.001-.883-.267-.883-.803zm-2.492-4.205h-1.152v-2.036h-1.821v2.036h-.857v1.393h.857v2.438c0 .831.161 1.446.509 1.795.348.375.857.562 1.473.562.402 0 .723-.054 1.018-.161l-.027-1.42c-.054.054-.161.08-.348.08-.294 0-.509-.107-.643-.322-.107-.161-.161-.429-.161-.83v-2.143h1.152zm4.581 2.009c-1.232 0-2.17.187-2.813.589-.67.402-1.018.991-1.018 1.768 0 .482.188.911.536 1.259.402.375.911.562 1.527.562.83 0 1.446-.268 1.875-.777h.054v.643h1.714v-3.563c0-.804-.214-1.42-.616-1.875-.482-.509-1.205-.777-2.17-.777-.991 0-1.822.187-2.464.589l.348 1.179c.536-.321 1.125-.482 1.795-.482.83 0 1.232.268 1.232.83zm4.821-2.009h-1.875v3.509c0 .938.241 1.634.697 2.089.402.402.938.589 1.607.589.938 0 1.634-.375 2.063-1.098h.027v.964h1.661v-6.054h-1.875v3.536c0 .161-.027.295-.053.375-.214.509-.589.777-1.152.777-.723 0-1.098-.509-1.098-1.5zm.482-.402h1.313l1.607-1.634h-1.768z" fill="#fff22d"/></g></switch></svg>

<?xml version="1.0" encoding="UTF-8"?>
<svg width="60px" height="40px" viewBox="0 0 60 40" version="1.1" xmlns="http://www.w3.org/2000/svg" xmlns:xlink="http://www.w3.org/1999/xlink">
    <!-- Generator: Sketch 52.4 (67378) - http://www.bohemiancoding.com/sketch -->
    <title>Artboard</title>
    <desc>Created with Sketch.</desc>
    <g id="Artboard" stroke="none" stroke-width="1" fill="none" fill-rule="evenodd">
        <g id="itau-v2">
            <path d="M60,35 C60,37.75 57.75,40 55,40 L5,40 C2.25,40 0,37.75 0,35 L0,5 C0,2.25 2.25,0 5,0 L55,0 C57.75,0 60,2.25 60,5 L60,35 Z" id="Path" fill="#F5F5F5"></path>
            <path d="M55,0 L5,0 C2.25,0 0,2.25 0,5 L0,35 C0,37.75 2.25,40 5,40 L55,40 C57.75,40 60,37.75 60,35 L60,5 C60,2.25 57.75,0 55,0 Z M55,1 C57.206,1 59,2.794 59,5 L59,35 C59,37.206 57.206,39 55,39 L5,39 C2.794,39 1,37.206 1,35 L1,5 C1,2.794 2.794,1 5,1 L55,1 Z" id="Shape" fill="#D0D0D0" fill-rule="nonzero"></path>
            <path d="M21.924,7.893 L38.076,7.893 C39.201,7.893 40.138,8.295 40.916,9.072 C41.72,9.849 42.121,10.813 42.121,11.938 L42.121,28.09 C42.121,29.188 41.719,30.153 40.916,30.929 C40.139,31.706 39.201,32.108 38.076,32.108 L21.924,32.108 C20.799,32.108 19.835,31.706 19.058,30.929 C18.281,30.152 17.879,29.188 17.879,28.09 L17.879,11.937 C17.879,10.812 18.281,9.848 19.058,9.071 C19.835,8.294 20.799,7.893 21.924,7.893 Z" id="Path" fill="#124C89"></path>
            <path d="M19.888,19.999 L19.888,28.088 L21.79,28.088 L21.79,19.999 L19.888,19.999 Z M28.996,26.24 C28.996,25.517 29.719,25.195 31.139,25.222 L31.139,25.865 L31.112,26.213 C31.032,26.454 30.871,26.642 30.656,26.775 C30.442,26.962 30.174,27.043 29.879,27.043 C29.29,27.044 28.996,26.776 28.996,26.24 Z M26.504,22.035 L25.352,22.035 L25.352,19.999 L23.531,19.999 L23.531,22.035 L22.674,22.035 L22.674,23.428 L23.531,23.428 L23.531,25.866 C23.531,26.697 23.692,27.312 24.04,27.661 C24.388,28.036 24.897,28.223 25.513,28.223 C25.915,28.223 26.236,28.169 26.531,28.062 L26.504,26.642 C26.45,26.696 26.343,26.722 26.156,26.722 C25.862,26.722 25.647,26.615 25.513,26.4 C25.406,26.239 25.352,25.971 25.352,25.57 L25.352,23.427 L26.504,23.427 L26.504,22.035 Z M31.085,24.044 C29.853,24.044 28.915,24.231 28.272,24.633 C27.602,25.035 27.254,25.624 27.254,26.401 C27.254,26.883 27.442,27.312 27.79,27.66 C28.192,28.035 28.701,28.222 29.317,28.222 C30.147,28.222 30.763,27.954 31.192,27.445 L31.246,27.445 L31.246,28.088 L32.96,28.088 L32.96,24.525 C32.96,23.721 32.746,23.105 32.344,22.65 C31.862,22.141 31.139,21.873 30.174,21.873 C29.183,21.873 28.352,22.06 27.71,22.462 L28.058,23.641 C28.594,23.32 29.183,23.159 29.853,23.159 C30.683,23.159 31.085,23.427 31.085,23.989 L31.085,24.044 Z M35.906,22.035 L34.031,22.035 L34.031,25.544 C34.031,26.482 34.272,27.178 34.728,27.633 C35.13,28.035 35.666,28.222 36.335,28.222 C37.273,28.222 37.969,27.847 38.398,27.124 L38.425,27.124 L38.425,28.088 L40.086,28.088 L40.086,22.034 L38.211,22.034 L38.211,25.57 C38.211,25.731 38.184,25.865 38.158,25.945 C37.944,26.454 37.569,26.722 37.006,26.722 C36.283,26.722 35.908,26.213 35.908,25.222 L35.906,22.035 Z M36.388,21.633 L37.701,21.633 L39.308,19.999 L37.54,19.999 L36.388,21.633 Z" id="Shape" fill="#FFF22D" fill-rule="nonzero"></path>
        </g>
    </g>
</svg>
